src/img/light.svg

<svg width="33" height="34" viewBox="0 0 33 34" fill="none" xmlns="http://www.w3.org/2000/svg">
<path d="M4.40002 15.6066C5.22502 15.6066 5.77502 16.1639 5.77502 17C5.77502 17.8361 5.22502 18.3934 4.40002 18.3934H1.375C0.55 18.3934 0 17.8361 0 17C0 16.1639 0.55 15.6066 1.375 15.6066H4.40002ZM6.875 24.8032C7.425 24.2459 8.25003 24.2459 8.80003 24.8032C9.35003 25.3606 9.35003 26.1967 8.80003 26.7541L6.59998 28.9836C6.04998 29.5409 5.22503 29.5409 4.67503 28.9836C4.12503 28.4262 4.12503 27.5902 4.67503 27.0328L6.875 24.8032ZM4.67503 7.24591C4.12503 6.68853 4.12503 5.85244 4.67503 5.29506C5.22503 4.73768 6.04998 4.73768 6.59998 5.29506L8.80003 7.52462C9.35003 8.08199 9.35003 8.91801 8.80003 9.47538C8.25003 10.0328 7.425 10.0328 6.875 9.47538L4.67503 7.24591ZM24.2001 17C24.2001 21.459 20.625 25.0819 16.225 25.0819C11.825 25.0819 8.25 21.459 8.25 17C8.25 12.541 11.825 8.91806 16.225 8.91806C20.9 9.19675 24.2001 12.8197 24.2001 17ZM11 17C11 20.0656 13.475 22.2951 16.225 22.2951C19.25 22.2951 21.4501 19.7869 21.4501 17C21.4501 13.9344 18.975 11.7049 16.225 11.7049C13.475 11.7049 11 14.2131 11 17ZM17.875 4.73773C17.875 5.5738 17.325 6.13118 16.5 6.13118C15.675 6.13118 15.125 5.5738 15.125 4.73773V1.39344C15.125 0.557376 15.675 0 16.5 0C17.325 0 17.875 0.557376 17.875 1.39344V4.73773ZM17.875 32.6066C17.875 33.4426 17.325 34 16.5 34C15.675 34 15.125 33.4426 15.125 32.6066V29.541C15.125 28.7049 15.675 28.1475 16.5 28.1475C17.325 28.1475 17.875 28.7049 17.875 29.541V32.6066ZM26.4 5.01635C26.95 4.45898 27.7751 4.45898 28.3251 5.01635C28.8751 5.57373 28.8751 6.40983 28.3251 6.96721L26.125 9.19668C25.575 9.75405 24.7501 9.75405 24.2001 9.19668C23.6501 8.6393 23.6501 7.80329 24.2001 7.24591L26.4 5.01635ZM28.3251 27.0328C28.8751 27.5902 28.8751 28.4262 28.3251 28.9836C27.7751 29.5409 26.95 29.5409 26.4 28.9836L24.2001 26.7541C23.6501 26.1967 23.6501 25.3606 24.2001 24.8032C24.7501 24.2459 25.575 24.2459 26.125 24.8032L28.3251 27.0328ZM28.6 18.3934C27.775 18.3934 27.225 17.8361 27.225 17C27.225 16.1639 27.775 15.6066 28.6 15.6066H31.625C32.45 15.6066 33 16.1639 33 17C33 17.8361 32.45 18.3934 31.625 18.3934H28.6Z" fill="black"/>
</svg>

<svg width="33" height="34" viewBox="0 0 33 34" fill="none" xmlns="http://www.w3.org/2000/svg"><path d="M4.4 15.6c.8 0 1.4.6 1.4 1.4 0 .8-.6 1.4-1.4 1.4h-3C.6 18.4 0 17.8 0 17c0-.8.6-1.4 1.4-1.4h3Zm2.5 9.2c.5-.6 1.4-.6 1.9 0 .6.6.6 1.4 0 2L6.6 29c-.6.5-1.4.5-2 0-.5-.6-.5-1.4 0-2L7 24.8ZM4.7 7.2C4 6.7 4 6 4.7 5.3c.5-.6 1.3-.6 1.9 0l2.2 2.2c.6.6.6 1.4 0 2-.5.5-1.4.5-2 0L4.8 7.2ZM24.2 17a8 8 0 0 1-8 8 8 8 0 0 1-8-8 8 8 0 0 1 8-8c4.7.2 8 3.8 8 8ZM11 17c0 3 2.5 5.3 5.2 5.3 3 0 5.3-2.5 5.3-5.3 0-3-2.5-5.3-5.3-5.3A5.4 5.4 0 0 0 11 17Zm6.9-12.3c0 .9-.6 1.4-1.4 1.4-.8 0-1.4-.5-1.4-1.4V1.4c0-.8.6-1.4 1.4-1.4.8 0 1.4.6 1.4 1.4v3.3Zm0 28c0 .7-.6 1.3-1.4 1.3-.8 0-1.4-.6-1.4-1.4v-3c0-.9.6-1.5 1.4-1.5.8 0 1.4.6 1.4 1.4v3.1ZM26.4 5c.6-.5 1.4-.5 2 0 .5.6.5 1.4 0 2L26 9.2c-.5.6-1.3.6-1.9 0-.5-.6-.5-1.4 0-2L26.4 5Zm2 22c.5.6.5 1.4 0 2-.6.5-1.4.5-2 0l-2.2-2.2c-.5-.6-.5-1.4 0-2 .6-.6 1.4-.6 2 0l2.1 2.2Zm.2-8.6c-.8 0-1.4-.6-1.4-1.4 0-.8.6-1.4 1.4-1.4h3c.9 0 1.4.6 1.4 1.4 0 .8-.5 1.4-1.4 1.4h-3Z" fill="black"/></svg>
